img/avatar-placeholder-bg.svg

<svg fill="none" height="120" viewBox="0 0 120 120" width="120" xmlns="http://www.w3.org/2000/svg" xmlns:xlink="http://www.w3.org/1999/xlink"><clipPath id="a"><path d="m0 0h120v120h-120z"/></clipPath><g clip-path="url(#a)"><path d="m0 0h120v120h-120z" fill="#fff"/><path clip-rule="evenodd" d="m0 4.93776 3.12763 3.12762 8.06847-8.06538h1.4145l-8.77586 8.77249 10.63276 10.63271 10.6087-10.6047-8.8005-8.8005h1.4143l8.0935 8.09353 8.0966-8.09353h1.4145l-8.804 8.80064 10.6327 10.63276 10.6087-10.60463-8.8288-8.82877h1.4142l8.1218 8.1218 8.1249-8.1218h1.4145l-8.8323 8.8289 10.6328 10.6327 10.6086-10.60455-8.857-8.85705h1.4142l8.15 8.15008 8.1532-8.15008h1.4145l-8.8606 8.85719 10.613 10.61301 10.6067-10.60664-8.8636-8.86356h1.4142l8.1565 8.15646 8.1562-8.15646h1.414l-8.8631 8.86356 10.6061 10.60664 10.607-10.60663-8.863-8.86357h1.414l8.156 8.15647 3.644-3.64378v1.41419l-2.937 2.93669 2.937 2.93673v1.4142l-3.644-3.64383-10.606 10.60663 10.606 10.6066 3.644-3.6438v1.4142l-2.937 2.9367 2.937 2.9367v1.4142l-3.644-3.6438-10.606 10.6066 10.606 10.6066 3.644-3.6438v1.4142l-2.937 2.9367 2.937 2.9367v1.4142l-3.644-3.6438-10.606 10.6067 10.606 10.6066 3.644-3.6439v1.4142l-2.937 2.9368 2.937 2.9367v1.4142l-3.644-3.6438-10.606 10.6066 10.606 10.6066 3.644-3.6438v1.4142l-2.937 2.9367 2.937 2.9367v1.414l-3.644-3.644-10.606 10.607 9.313 9.313h-1.415l-8.606-8.606-8.6054 8.606h-1.4142l9.3126-9.313-10.6063-10.607-10.6067 10.607 9.3129 9.313h-1.4142l-8.6058-8.606-8.6058 8.606h-1.4142l9.3129-9.313-10.6066-10.606-10.6066 10.606 9.3128 9.313h-1.4141l-8.6058-8.606-8.6058 8.606h-1.4142l9.3129-9.313-10.6066-10.606-10.6066 10.606 9.3128 9.313h-1.4142l-8.6057-8.606-8.6058 8.606h-1.4142l9.3129-9.313-10.6067-10.606-10.6066 10.606 9.3129 9.313h-1.4143l-8.6057-8.606-8.60575 8.606h-1.4142l9.31285-9.313-10.60662-10.606-3.21888 3.218v-1.414l2.51178-2.5116-2.51178-2.5118v-1.4142l3.21888 3.2189 10.60662-10.6066-10.62611-10.6261-3.19939 3.1981v-1.4139l2.49228-2.4913-2.49228-2.4923v-1.4142l3.19952 3.1995 10.60868-10.6046-10.63275-10.6327-3.17545 3.1742v-1.4139l2.46835-2.4674-2.46835-2.4684v-1.4142l3.17558 3.1756 10.60862-10.6046-10.6327-10.6327-3.1515 3.1503v-1.414l2.4444-2.4434-2.4444-2.4444v-1.4142l3.15164 3.1516 10.60856-10.6045-10.63271-10.63274-3.12749 3.12634v-1.414l2.42039-2.41945-2.42039-2.42038zm105.042 83.82894 10.607 10.6066-10.607 10.6067-10.6062-10.6067zm-79.9028 10.6067-10.6066 10.6066-10.60662-10.6066 10.60662-10.6066zm57.9829-79.1961 10.6067-10.60664 10.6062 10.60664-10.6062 10.6066zm11.3138 11.3137 10.6061-10.6066 10.607 10.6066-10.607 10.6066zm10.6061 34.6483 10.607 10.6066-10.607 10.6066-10.6061-10.6066zm-11.3132 11.3137 10.6062 10.6066-10.6063 10.6066-10.6066-10.6066zm-11.3138 11.3137 10.6066 10.6066-10.6067 10.6067-10.6066-10.6066zm-34.6483 10.6067-10.6066 10.6066-10.6067-10.6066 10.6067-10.6066zm-11.3137-11.3137-10.6067 10.6066-10.6066-10.6066 10.6066-10.6066zm-11.3138-11.3137-10.6066 10.6066-10.62598-10.626 10.60868-10.6046zm-10.6477-34.6895-10.63275-10.6327 10.60855-10.6045 10.6328 10.6327zm11.3158-11.3115-10.6327-10.6327 10.6088-10.60469 10.6327 10.63269zm34.6789-10.5763 10.6086-10.60454 10.6131 10.61314-10.6066 10.6066zm11.3222 11.3223 10.6066-10.6066 10.6067 10.6066-10.6067 10.6066zm11.3137 11.3137 10.6067-10.6066 10.6062 10.6066-10.6062 10.6066zm11.3138 11.3137 10.6061-10.6066 10.607 10.6066-10.607 10.6067zm-.7071.7071 10.6062 10.6067-10.6063 10.6066-10.6066-10.6066zm-11.3138 11.3138 10.6067 10.6066-10.6067 10.6066-10.6066-10.6066zm-11.3137 11.3137 10.6066 10.6066-10.6067 10.6067-10.6066-10.6066zm-11.3138 11.3138 10.6066 10.6066-10.6066 10.6066-10.6066-10.6066zm-.7071-.7071-10.6066 10.6066-10.6066-10.6066 10.6066-10.6066zm-11.3137-11.3137-10.6066 10.6066-10.6067-10.6066 10.6067-10.6067zm-11.3137-11.3138-10.6067 10.6067-10.6238-10.6239 10.6087-10.6045zm-11.3289-11.3289-10.6087 10.6046-10.63271-10.6327 10.60861-10.6046zm.7072-.7069-10.6327-10.6327 10.6086-10.6046 10.6327 10.6327zm11.3159-11.3116-10.6328-10.6327 10.6088-10.6047 10.6327 10.6328zm11.316-11.3116-10.6328-10.6327 10.6087-10.60463 10.6327 10.63273zm.7071.7071 10.6086-10.6046 10.6153 10.6153-10.6066 10.6066zm11.3244 11.3244 10.6066-10.6066 10.6066 10.6066-10.6066 10.6067zm11.3137 11.3138 10.6066-10.6067 10.6067 10.6066-10.6067 10.6067zm-.7071.7071 10.6066 10.6066-10.6066 10.6066-10.6067-10.6066zm-11.3138 11.3137 10.6067 10.6067-10.6067 10.6066-10.6066-10.6066zm-.7071-.7071-10.6066 10.6067-10.6066-10.6067 10.6066-10.6066zm-11.3137-11.3137-10.6066 10.6066-10.6217-10.6216 10.6086-10.6046zm.7071-.7071-10.6195-10.6195 10.6087-10.6046 10.6175 10.6174zm.7071.7071 10.6067-10.6067 10.6066 10.6067-10.6067 10.6066z" fill="#bac3d1" fill-rule="evenodd"/></g></svg>

<svg width="120" height="120" viewBox="0 0 120 120" fill="none" xmlns="http://www.w3.org/2000/svg">
<g clip-path="url(#clip0_8346_54997)">
<rect width="120" height="120" fill="white"/>
<path fill-rule="evenodd" clip-rule="evenodd" d="M0 4.93776L3.12763 8.06538L11.1961 0H12.6106L3.83474 8.77249L14.4675 19.4052L25.0762 8.8005L16.2757 0H17.69L25.7835 8.09353L33.8801 0H35.2946L26.4906 8.80064L37.1233 19.4334L47.732 8.82877L38.9032 0H40.3174L48.4392 8.1218L56.5641 0H57.9786L49.1463 8.8289L59.7791 19.4616L70.3877 8.85705L61.5307 0H62.9449L71.0949 8.15008L79.2481 0H80.6626L71.802 8.85719L82.415 19.4702L93.0217 8.86356L84.1581 0H85.5723L93.7288 8.15646L101.885 0H103.299L94.4359 8.86356L105.042 19.4702L115.649 8.86357L106.786 0H108.2L116.356 8.15647L120 4.51269V5.92688L117.063 8.86357L120 11.8003V13.2145L116.356 9.57067L105.75 20.1773L116.356 30.7839L120 27.1401V28.5543L117.063 31.491L120 34.4277V35.8419L116.356 32.1981L105.75 42.8047L116.356 53.4113L120 49.7675V51.1817L117.063 54.1184L120 57.0551V58.4693L116.356 54.8255L105.75 65.4322L116.356 76.0388L120 72.3949V73.8091L117.063 76.7459L120 79.6826V81.0968L116.356 77.453L105.75 88.0596L116.356 98.6662L120 95.0224V96.4366L117.063 99.3733L120 102.31V103.724L116.356 100.08L105.75 110.687L115.063 120H113.648L105.042 111.394L96.4366 120H95.0224L104.335 110.687L93.7287 100.08L83.122 110.687L92.4349 120H91.0207L82.4149 111.394L73.8091 120H72.3949L81.7078 110.687L71.1012 100.081L60.4946 110.687L69.8074 120H68.3933L59.7875 111.394L51.1817 120H49.7675L59.0804 110.687L48.4738 100.081L37.8672 110.687L47.18 120H45.7658L37.1601 111.394L28.5543 120H27.1401L36.453 110.687L25.8463 100.081L15.2397 110.687L24.5526 120H23.1383L14.5326 111.394L5.92685 120H4.51265L13.8255 110.687L3.21888 100.081L0 103.299V101.885L2.51178 99.3734L0 96.8616V95.4474L3.21888 98.6663L13.8255 88.0597L3.19939 77.4336L0 80.6317V79.2178L2.49228 76.7265L0 74.2342V72.82L3.19952 76.0195L13.8082 65.4149L3.17545 54.7822L0 57.9564V56.5425L2.46835 54.0751L0 51.6067V50.1925L3.17558 53.3681L13.7842 42.7635L3.1515 32.1308L0 35.2811V33.8671L2.4444 31.4237L0 28.9793V27.5651L3.15164 30.7167L13.7602 20.1122L3.12749 9.47946L0 12.6058V11.1918L2.42039 8.77235L0 6.35197V4.93776ZM105.042 88.7667L115.649 99.3733L105.042 109.98L94.4358 99.3733L105.042 88.7667ZM25.1392 99.3734L14.5326 109.98L3.92598 99.3734L14.5326 88.7668L25.1392 99.3734ZM83.1221 20.1773L93.7288 9.57066L104.335 20.1773L93.7288 30.7839L83.1221 20.1773ZM94.4359 31.491L105.042 20.8844L115.649 31.491L105.042 42.0976L94.4359 31.491ZM105.042 66.1393L115.649 76.7459L105.042 87.3525L94.4359 76.7459L105.042 66.1393ZM93.7288 77.453L104.335 88.0596L93.7287 98.6662L83.1221 88.0596L93.7288 77.453ZM82.415 88.7667L93.0216 99.3733L82.4149 109.98L71.8083 99.3734L82.415 88.7667ZM47.7667 99.3734L37.1601 109.98L26.5534 99.3734L37.1601 88.7668L47.7667 99.3734ZM36.453 88.0597L25.8463 98.6663L15.2397 88.0597L25.8463 77.4531L36.453 88.0597ZM25.1392 76.746L14.5326 87.3526L3.90662 76.7266L14.5153 66.122L25.1392 76.746ZM14.4915 42.0565L3.85875 31.4238L14.4673 20.8193L25.1001 31.452L14.4915 42.0565ZM25.8073 30.745L15.1746 20.1123L25.7834 9.50761L36.4161 20.1403L25.8073 30.745ZM60.4862 20.1687L71.0948 9.56416L81.7079 20.1773L71.1013 30.7839L60.4862 20.1687ZM71.8084 31.491L82.415 20.8844L93.0217 31.491L82.415 42.0976L71.8084 31.491ZM83.1221 42.8047L93.7288 32.1981L104.335 42.8047L93.7288 53.4113L83.1221 42.8047ZM94.4359 54.1184L105.042 43.5118L115.649 54.1184L105.042 64.7251L94.4359 54.1184ZM93.7288 54.8255L104.335 65.4322L93.7287 76.0388L83.1221 65.4322L93.7288 54.8255ZM82.415 66.1393L93.0217 76.7459L82.415 87.3525L71.8084 76.7459L82.415 66.1393ZM71.1013 77.453L81.7079 88.0596L71.1012 98.6663L60.4946 88.0597L71.1013 77.453ZM59.7875 88.7668L70.3941 99.3734L59.7875 109.98L49.1809 99.3734L59.7875 88.7668ZM59.0804 88.0597L48.4738 98.6663L37.8672 88.0597L48.4738 77.4531L59.0804 88.0597ZM47.7667 76.746L37.1601 87.3526L26.5534 76.746L37.1601 66.1393L47.7667 76.746ZM36.453 65.4322L25.8463 76.0389L15.2225 65.415L25.8312 54.8105L36.453 65.4322ZM25.1241 54.1033L14.5154 64.7079L3.88269 54.0752L14.4913 43.4706L25.1241 54.1033ZM25.8313 53.3964L15.1986 42.7637L25.8072 32.1591L36.4399 42.7918L25.8313 53.3964ZM37.1472 42.0848L26.5144 31.4521L37.1232 20.8474L47.7559 31.4802L37.1472 42.0848ZM48.4632 30.7732L37.8304 20.1405L48.4391 9.53587L59.0718 20.1686L48.4632 30.7732ZM49.1703 31.4803L59.7789 20.8757L70.3942 31.491L59.7876 42.0976L49.1703 31.4803ZM60.4947 42.8047L71.1013 32.1981L81.7079 42.8047L71.1013 53.4114L60.4947 42.8047ZM71.8084 54.1185L82.415 43.5118L93.0217 54.1184L82.415 64.7251L71.8084 54.1185ZM71.1013 54.8256L81.7079 65.4322L71.1013 76.0388L60.4946 65.4322L71.1013 54.8256ZM59.7875 66.1393L70.3942 76.746L59.7875 87.3526L49.1809 76.746L59.7875 66.1393ZM59.0804 65.4322L48.4738 76.0389L37.8672 65.4322L48.4738 54.8256L59.0804 65.4322ZM47.7667 54.1185L37.1601 64.7251L26.5384 54.1035L37.147 43.4989L47.7667 54.1185ZM48.4738 53.4114L37.8543 42.7919L48.463 32.1873L59.0805 42.8047L48.4738 53.4114ZM49.1809 54.1185L59.7876 43.5118L70.3942 54.1185L59.7875 64.7251L49.1809 54.1185Z" fill="#BAC3D1"/>
</g>
<defs>
<clipPath id="clip0_8346_54997">
<rect width="120" height="120" fill="white"/>
</clipPath>
</defs>
</svg>
